app/img/advantages-5.svg

<svg width="97" height="97" viewBox="0 0 97 97" fill="none" xmlns="http://www.w3.org/2000/svg">
<path d="M42.5618 55.4557H5.9996C4.32782 55.4557 4.32782 52.9285 5.9996 52.9285H39.0192C40.8982 52.9285 40.9004 50.0874 39.0192 50.0874H8.80069V8.21013H85.9429V50.0874H76.7981C74.9198 50.0874 74.9161 52.9285 76.7981 52.9285H89.2583C90.9294 52.9285 90.9294 55.4557 89.2583 55.4557H73.5093C71.631 55.4557 71.6281 58.2975 73.5093 58.2975H89.2583C91.5214 58.2975 93.3626 56.4556 93.3626 54.1925C93.3626 51.9287 91.5214 50.0874 89.2583 50.0874H88.7847V8.21013H89.2583C91.5214 8.21013 93.3626 6.36814 93.3626 4.10506C93.3626 1.84125 91.5214 0 89.2583 0H5.9996C3.73578 0 1.89453 1.84125 1.89453 4.10506C1.89453 6.35482 3.71432 8.18793 5.95889 8.21013V50.0874C3.71432 50.1096 1.89453 51.942 1.89453 54.1925C1.89453 56.4556 3.73578 58.2975 5.9996 58.2975H42.5618C44.4401 58.2975 44.443 55.4557 42.5618 55.4557ZM5.9996 2.8418H89.2583C90.9294 2.8418 90.9294 5.36833 89.2583 5.36833H5.9996C4.32708 5.36833 4.3293 2.8418 5.9996 2.8418Z" fill="white"/>
<path d="M26.3488 13.3497C26.3488 12.102 25.3335 11.0874 24.0857 11.0874H15.1659C13.9182 11.0874 12.9036 12.102 12.9036 13.3497V18.8602C12.9036 20.1079 13.9182 21.1225 15.1659 21.1225H24.0857C25.3335 21.1225 26.3488 20.1079 26.3488 18.8602V13.3497ZM23.507 18.2807H15.7446V13.9285H23.507V18.2807Z" fill="white"/>
<path d="M26.3488 26.5175C26.3488 25.2697 25.3335 24.2551 24.0857 24.2551H15.1659C13.9182 24.2551 12.9036 25.2697 12.9036 26.5175V32.0279C12.9036 33.2756 13.9182 34.2902 15.1659 34.2902H24.0857C25.3335 34.2902 26.3488 33.2756 26.3488 32.0279V26.5175ZM23.507 31.4484H15.7446V27.0962H23.507V31.4484Z" fill="white"/>
<path d="M24.0857 37.4229H15.1659C13.9182 37.4229 12.9036 38.4375 12.9036 39.6852V45.1956C12.9036 46.4433 13.9182 47.4579 15.1659 47.4579H24.0857C25.3335 47.4579 26.3488 46.4433 26.3488 45.1956V39.6852C26.3488 38.4375 25.3335 37.4229 24.0857 37.4229ZM23.507 44.6169H15.7446V40.2639H23.507V44.6169Z" fill="white"/>
<path d="M86.4572 64.5621C84.9098 63.8968 83.2868 63.4217 81.6335 63.0998L67.2373 60.3009V56.7435C71.2802 53.986 73.4686 50.08 73.9452 45.6938C76.0432 45.5272 77.7002 43.7667 77.7002 41.6264V38.7062C81.1214 37.2187 80.6589 32.2263 77.0393 31.3841V30.2563C77.0393 20.1242 68.8255 11.9097 58.6927 11.9097H57.1549C47.0221 11.9097 38.8083 20.1242 38.8083 30.2563V31.3834C35.1902 32.2256 34.7261 37.2187 38.1481 38.7062V41.6257C38.1481 43.7667 39.8044 45.5272 41.9032 45.693C42.3775 50.0593 44.5392 53.966 48.611 56.7435V60.3001L34.2148 63.0998C32.5615 63.4217 30.9386 63.8961 29.3911 64.5621C23.5499 67.0761 20.7 71.0894 20.7 76.7581V79.6769C20.7 81.5552 23.541 81.5581 23.541 79.6769V76.7589C23.541 72.5014 25.4755 69.5574 29.719 67.5238C29.8899 68.2801 32.4934 75.3469 32.4934 85.2206V94.159H26.4894C24.8613 94.159 23.541 92.8387 23.541 91.2106V85.3302C23.541 83.4519 20.7 83.449 20.7 85.3302V91.2106C20.7 94.4084 23.2916 97 26.4894 97H89.3589C92.5567 97 95.1484 94.4084 95.1484 91.2106V76.7589C95.1484 71.0894 92.2977 67.0761 86.4572 64.5621ZM83.48 66.4677C83.2824 67.3351 80.5131 74.7903 80.5131 85.2206V94.159H59.3447V87.0005C59.3447 84.8721 59.9922 82.8266 61.217 81.086C63.0516 78.4773 70.6083 67.5741 72.8491 64.2868C83.0485 66.3404 81.8186 65.9149 83.48 66.4677ZM56.9551 79.4505C55.865 77.9008 54.4492 75.8671 52.9714 73.7358C53.4102 73.6388 53.8387 73.4701 54.2406 73.2296L57.9238 71.0205L61.607 73.2296C62.0089 73.4701 62.4374 73.6388 62.8762 73.7358C61.3998 75.8664 59.9841 77.8993 58.8933 79.4505C58.5299 79.967 58.2065 80.5043 57.9238 81.0586C57.6418 80.5043 57.3184 79.967 56.9551 79.4505ZM55.0235 69.4464C52.7738 70.6512 52.9336 71.0116 51.9116 70.8903C51.2759 70.8148 50.7053 70.461 50.3412 69.9341C48.6428 67.4742 47.0702 65.1919 46.0408 63.6948L48.8863 63.1419C49.8054 65.9334 52.8345 68.1536 55.0235 69.4464ZM69.8075 63.6955C68.7752 65.1956 67.1988 67.4846 65.496 69.9504C64.8011 70.9554 63.5556 71.0842 63.0686 70.7919L60.824 69.4464C63.0139 68.1536 66.0421 65.9334 66.9613 63.1419L69.8075 63.6955ZM49.6485 16.6926V18.4747C49.6485 20.3529 52.4896 20.3559 52.4896 18.4747V15.4686C53.7647 15.0652 55.1109 14.8233 56.5036 14.7655V21.7908C56.5036 23.6691 59.3447 23.672 59.3447 21.7908V14.7655C60.7375 14.8233 62.0836 15.066 63.358 15.4686V18.4747C63.358 20.3529 66.1998 20.3559 66.1998 18.4747V16.6934C75.0819 21.628 74.1376 31.0592 74.1983 31.2842H41.6501C41.6989 31.1014 40.8123 21.6029 49.6485 16.6926ZM39.686 34.1253H76.1623C77.5248 34.1253 77.5226 36.1834 76.1623 36.1834H39.686C38.3235 36.1834 38.3258 34.1253 39.686 34.1253ZM44.6547 44.2551C44.6376 43.4825 44.0071 42.8653 43.2338 42.8653C42.997 42.8061 40.9899 43.2338 40.9899 41.6264V39.0251H74.8591V41.6264C74.8591 43.2316 72.7973 42.8194 72.6145 42.8653C71.8412 42.8653 71.2099 43.4825 71.1936 44.2551C71.1174 47.8073 69.6085 51.1065 67.0523 53.3067C61.6263 57.9786 54.2228 57.9793 48.796 53.3067C46.2399 51.1065 44.7302 47.8066 44.6547 44.2551ZM64.3955 58.3124V61.4716C64.3955 64.0122 60.084 66.7023 57.9238 67.7895C55.7658 66.7031 51.4639 64.0196 51.452 61.482C51.452 61.479 51.452 61.4753 51.452 61.4716V58.3124C55.5874 60.0959 60.2557 60.0981 64.3955 58.3124ZM32.3683 66.4677C34.0275 65.9164 32.7946 66.3412 42.9984 64.2868L43.8103 65.4664C44.6384 66.6705 45.7847 68.3349 47.0554 70.1761C49.3732 73.536 52.5703 78.1561 54.6313 81.0852C55.8561 82.8266 56.5036 84.8713 56.5036 87.0005V94.1582H35.3352V85.2199C35.3352 74.5217 32.6333 67.6341 32.3683 66.4677ZM92.3066 91.2106C92.3066 92.8358 90.9848 94.1582 89.3589 94.1582H83.3549V85.2206C83.3549 75.6177 86.0243 67.9885 86.1301 67.5238C90.3728 69.5574 92.3073 72.5014 92.3073 76.7589V91.2106H92.3066Z" fill="white"/>
<path d="M65.6691 82.1818C64.3296 82.1818 63.2395 83.2719 63.2395 84.6114V87.4583C63.2395 88.7986 64.3296 89.8879 65.6691 89.8879H74.025C75.3645 89.8879 76.4546 88.7986 76.4546 87.4583V84.6114C76.4546 83.2719 75.3645 82.1818 74.025 82.1818H65.6691ZM73.6128 87.0461H66.0813V85.0236H73.6128V87.0461Z" fill="white"/>
</svg>

<svg width="97" height="97" viewBox="0 0 97 97" fill="none" xmlns="http://www.w3.org/2000/svg"><path d="M42.562 55.456H6c-1.672 0-1.672-2.528 0-2.528h33.02c1.878 0 1.88-2.84 0-2.84H8.8V8.21h77.143v41.877h-9.145c-1.878 0-1.882 2.841 0 2.841h12.46c1.671 0 1.671 2.528 0 2.528H73.51c-1.878 0-1.88 2.841 0 2.841h15.75a4.11 4.11 0 0 0 4.104-4.104 4.11 4.11 0 0 0-4.105-4.106h-.473V8.21h.473a4.11 4.11 0 0 0 4.105-4.105A4.11 4.11 0 0 0 89.258 0H6a4.11 4.11 0 0 0-4.105 4.105A4.11 4.11 0 0 0 5.959 8.21v41.877a4.11 4.11 0 0 0-4.064 4.105A4.11 4.11 0 0 0 6 58.297h36.562c1.878 0 1.881-2.841 0-2.841zM6 2.842h83.258c1.671 0 1.671 2.526 0 2.526H6c-1.673 0-1.67-2.526 0-2.526z" fill="#fff"/><path d="M26.349 13.35a2.265 2.265 0 0 0-2.263-2.263h-8.92a2.265 2.265 0 0 0-2.262 2.263v5.51a2.265 2.265 0 0 0 2.262 2.262h8.92a2.265 2.265 0 0 0 2.263-2.262v-5.51zm-2.842 4.93h-7.762v-4.352h7.762v4.353zm2.842 8.237a2.265 2.265 0 0 0-2.263-2.262h-8.92a2.265 2.265 0 0 0-2.262 2.262v5.51a2.265 2.265 0 0 0 2.262 2.263h8.92a2.265 2.265 0 0 0 2.263-2.262v-5.51zm-2.842 4.931h-7.762v-4.352h7.762v4.352zm.579 5.975h-8.92a2.265 2.265 0 0 0-2.262 2.262v5.51a2.265 2.265 0 0 0 2.262 2.263h8.92a2.265 2.265 0 0 0 2.263-2.262v-5.51a2.265 2.265 0 0 0-2.263-2.263zm-.579 7.194h-7.762v-4.353h7.762v4.353zm62.95 19.945a23.634 23.634 0 0 0-4.823-1.462l-14.397-2.8v-3.556c4.043-2.758 6.232-6.664 6.708-11.05a4.086 4.086 0 0 0 3.755-4.068v-2.92c3.421-1.487 2.959-6.48-.66-7.322v-1.128c0-10.132-8.215-18.346-18.347-18.346h-1.538c-10.133 0-18.347 8.214-18.347 18.346v1.127c-3.618.843-4.082 5.836-.66 7.323v2.92a4.085 4.085 0 0 0 3.755 4.067c.474 4.366 2.636 8.273 6.708 11.05V60.3l-14.396 2.8a23.592 23.592 0 0 0-4.824 1.462C23.55 67.076 20.7 71.09 20.7 76.758v2.919c0 1.878 2.841 1.881 2.841 0v-2.918c0-4.258 1.934-7.202 6.178-9.235.17.756 2.774 7.823 2.774 17.697v8.938H26.49a2.949 2.949 0 0 1-2.948-2.948v-5.88c0-1.88-2.841-1.882-2.841 0v5.88A5.789 5.789 0 0 0 26.49 97h62.869a5.789 5.789 0 0 0 5.79-5.79V76.76c0-5.67-2.851-9.683-8.692-12.197zm-2.977 1.906c-.198.867-2.967 8.322-2.967 18.753v8.938H59.345V87c0-2.128.647-4.173 1.872-5.914a2656.224 2656.224 0 0 0 11.632-16.8c10.2 2.054 8.97 1.629 10.631 2.182zM56.955 79.45a1105.75 1105.75 0 0 1-3.984-5.715 4.262 4.262 0 0 0 1.27-.506l3.683-2.21 3.683 2.21c.402.24.83.409 1.27.506-1.477 2.13-2.893 4.163-3.984 5.715a13.278 13.278 0 0 0-.97 1.608 13.195 13.195 0 0 0-.968-1.608zm-1.931-10.005c-2.25 1.205-2.09 1.566-3.112 1.444a2.238 2.238 0 0 1-1.57-.956 4250.24 4250.24 0 0 1-4.301-6.24l2.845-.552c.92 2.791 3.948 5.012 6.137 6.304zm14.784-5.75c-1.033 1.5-2.61 3.789-4.312 6.254-.695 1.005-1.94 1.134-2.427.842l-2.245-1.346c2.19-1.292 5.218-3.513 6.137-6.304l2.847.553zm-20.16-47.003v1.782c0 1.878 2.842 1.88 2.842 0v-3.006a15.412 15.412 0 0 1 4.014-.704v7.026c0 1.878 2.84 1.881 2.84 0v-7.026c1.393.058 2.74.301 4.014.704v3.006c0 1.878 2.842 1.88 2.842 0v-1.782c8.882 4.935 7.938 14.366 7.998 14.591H41.65c.049-.183-.838-9.681 7.998-14.591zm-9.962 17.432h36.476c1.363 0 1.36 2.058 0 2.058H39.686c-1.362 0-1.36-2.058 0-2.058zm4.969 10.13a1.42 1.42 0 0 0-1.421-1.39c-.237-.059-2.244.369-2.244-1.239v-2.6h33.87v2.6c0 1.606-2.063 1.193-2.245 1.24a1.42 1.42 0 0 0-1.421 1.39c-.077 3.551-1.585 6.85-4.142 9.05-5.426 4.673-12.83 4.673-18.256 0-2.556-2.2-4.066-5.5-4.141-9.05zm19.74 14.057v3.16c0 2.54-4.311 5.23-6.471 6.318-2.158-1.087-6.46-3.77-6.472-6.308v-3.17a16.316 16.316 0 0 0 12.944 0zm-32.027 8.156c1.66-.552.427-.127 10.63-2.181l.812 1.18c.828 1.204 1.975 2.868 3.245 4.71 2.318 3.359 5.515 7.98 7.576 10.908A10.23 10.23 0 0 1 56.504 87v7.157H35.335V85.22c0-10.698-2.702-17.586-2.967-18.752zM92.307 91.21a2.95 2.95 0 0 1-2.948 2.947h-6.004V85.22c0-9.603 2.67-17.233 2.775-17.697 4.243 2.033 6.177 4.977 6.177 9.235V91.21z" fill="#fff"/><path d="M65.67 82.182c-1.34 0-2.43 1.09-2.43 2.43v2.846c0 1.34 1.09 2.43 2.43 2.43h8.355c1.34 0 2.43-1.09 2.43-2.43v-2.847c0-1.34-1.09-2.43-2.43-2.43h-8.356zm7.943 4.864H66.08v-2.022h7.532v2.022z" fill="#fff"/></svg>
